packages/swarm-icons/src/icons/line/Clock.svg

<svg xmlns="http://www.w3.org/2000/svg" width="24" height="24" viewBox="0 0 24 24">
  <path fill="#757575" d="M12,21 C16.9705627,21 21,16.9705627 21,12 C21,7.02943725 16.9705627,3 12,3 C7.02943725,3 3,7.02943725 3,12 C3,16.9705627 7.02943725,21 12,21 Z M12,22 C6.4771525,22 2,17.5228475 2,12 C2,6.4771525 6.4771525,2 12,2 C17.5228475,2 22,6.4771525 22,12 C22,17.5228475 17.5228475,22 12,22 Z M11.5,5 C11.5,4.72385763 11.7238576,4.5 12,4.5 C12.2761424,4.5 12.5,4.72385763 12.5,5 L12.5,12 C12.5,12.1573787 12.4259029,12.3055728 12.3,12.4 L8.3,15.4 C8.0790861,15.5656854 7.76568542,15.5209139 7.6,15.3 C7.43431458,15.0790861 7.4790861,14.7656854 7.7,14.6 L11.5,11.75 L11.5,5 Z"/>
</svg>

<svg xmlns="http://www.w3.org/2000/svg" width="24" height="24"><path fill="#757575" d="M12 21a9 9 0 100-18 9 9 0 000 18zm0 1C6.477 22 2 17.523 2 12S6.477 2 12 2s10 4.477 10 10-4.477 10-10 10zm-.5-17a.5.5 0 111 0v7a.5.5 0 01-.2.4l-4 3a.5.5 0 01-.6-.8l3.8-2.85V5z"/></svg>
